X: 33325
T: Quarryman, The
R: jig
M: 6/8
K: Dmajor
A|Aff f2e|edd d2c|BGB dcB|A3 A2B|
Aee e2f|gfe dcB|ABA BAG|F3 F2A|
Aff f2e|edd d2c|BGB dcB|A3 A2B|
Aee e2f|gfe dcB|ABA ABc|d3 =c3||
Bcd G2B|d2B edB|ABd F2A|d2A fed|
cgg gee|ecc c2B|Aff fee|edd d2 =c|
Bcd G2B|d2B edB|ABd F2A|d2A fed|
cgg gee|ecc c2B|ABA ABc|d3- d2||

